X:1
T:Title
%%score 1 { 2 | 3 }
L:1/8
Q:1/4=108
M:4/4
K:D
V:1 treble nm="Grand Piano, Soprano"
V:2 bass nm="Choir Pad, Novello, 88.88.88"
V:3 bass 
V:1
 [FA]2 [Ad]2 F2 [DG]2 | [DB]2 [CA]2 [EG]2 [DF]2 | [DG]2 [DA]2 [Fd]2 [DB]2 | D2 [CG]2 [DF]2 [CE]2 | %4
w: By~Vincent~Novello~(1781\-1861) * * *||||
 [EA]2 [E^G]2 [EB]2 [EA]2 | [Ac]2 [Be]2 [^Gd]2 [Ac]2 | [EA]2 [Dd]2 [FB]2 [D^G]2 | %7
w: |||
 [CA]2 [Ac]2 [^GB]2 A2 | [Ac]2 [Ad]2 [DF]2 [DG]2 | [GB]2 [EA]2 [EG]2 [DF]2 | %10
w: |||
 [DG]2 [DA]2 [Fd]2 [DB]2 | [Ge]2 [Fd]2 [Ec]2 [Fd]2- | [Fd]6 z2 |] %13
w: |||
V:2
 D2 D2 A,2 G,2 | G,2 E,2 A,2 A,2 | B,2 A,2 A,2 G,2 | A,2 A,2 A,2 A,2 | A,2 B,2 ^G,2 A,2 | %5
 E2 E2 E2 E2 | C2[K:bass] A,2 D2 B,2 | A,2 E2[K:treble] D2 C2 | C2 D2 D2 D2 | %9
 D2 C2[K:bass] A,2 A,2 | B,2 A,2 A,2 G,2 | B,2 A,2 A,2 A,2- | A,6 z2 |] %13
V:3
 D,2 F,2 D,2 B,,2 | G,,2 A,,2 C,2 D,2 | z2 F,2 D,2 z2 | F,2 E,2 D,2 A,,2 | C,2 E,2 D,2 C,2 | %5
 A,2 ^G,2 B,2 A,2 | A,2 F,2 D,2 E,2 | F,2 E,2 E,2 A,,2 | G,2 F,2 =C2 B,2 | G,2 A,2 C,2 D,2 | %10
 z2 F,2 D,2 z2 | E,2 z2 A,,2 D,2- | D,6 z2 |] %13

